X: 1
T: Piper of Drummond
O: Scots Guards
N: Elke Baker arr.
M: 4/4
L: 1/8
R: reel, air, march, strathspey
K: D
B |\
"D"d2f>e d2A>B | "D"d2f>e "Bm"f>BB>c |\
"Bm"d2f>e "D"d2A>B | "D"d2d>B "A"A>AA :|
B |\
"Bm"d2f>B B2f>B | "Bm"d2f>e f>BB>c |\
"Bm"d2f>B B2f>B | "D"d2d>B "A"A>AA ||
B |\
"Bm"d2f>B B2f>B | "Bm"d2f>e f>BB>c |\
"Bm"d2f>e "D"d2A>B | "D"d2d>B A>AA |]
